src/icons/svgs/24/arrow-down-to-bracket.svg

<svg width="24" height="24" viewBox="0 0 24 24" fill="none" xmlns="http://www.w3.org/2000/svg">
<path d="M16.5714 21H7.42857C5.535 21 4 19.405 4 17.4375V14.7656C4 14.2721 4.38393 13.875 4.85714 13.875C5.33071 13.875 5.71429 14.2739 5.71429 14.7656V17.4375C5.71429 18.4172 6.48571 19.2188 7.42857 19.2188H16.5714C17.5143 19.2188 18.2857 18.4172 18.2857 17.4375V14.7656C18.2857 14.2739 18.6696 13.875 19.1429 13.875C19.6164 13.875 20 14.2739 20 14.7656V17.4375C20 19.4043 18.4643 21 16.5714 21ZM12.5857 14.8213L17.4429 10.0713C17.7889 9.73382 17.8043 9.17027 17.4797 8.81291C17.156 8.45458 16.6136 8.43736 16.2686 8.77465L12.8571 12.1086V2.89062C12.8571 2.39893 12.475 2 12 2C11.525 2 11.1429 2.39893 11.1429 2.89062V12.1086L7.72857 8.77246C7.385 8.43477 6.8425 8.45332 6.51893 8.81328C6.36286 8.98398 6.28571 9.20293 6.28571 9.42188C6.28571 9.65845 6.37611 9.89502 6.55579 10.0702L11.4129 14.8202C11.7429 15.1441 12.2571 15.1441 12.5857 14.8213Z" fill="black"/>
</svg>

<svg width="24" height="24" viewBox="0 0 24 24" xmlns="http://www.w3.org/2000/svg">
    <path d="M16.571 21H7.43C5.535 21 4 19.405 4 17.437v-2.671c0-.494.384-.891.857-.891.474 0 .857.399.857.89v2.672c0 .98.772 1.782 1.715 1.782h9.142c.943 0 1.715-.802 1.715-1.782v-2.671c0-.492.384-.891.857-.891s.857.399.857.89v2.672C20 19.404 18.464 21 16.571 21zm-3.985-6.179 4.857-4.75a.913.913 0 0 0 .037-1.258.834.834 0 0 0-1.211-.038l-3.412 3.334V2.89c0-.492-.382-.891-.857-.891s-.857.399-.857.89v9.219L7.729 8.772a.83.83 0 0 0-1.21.041.9.9 0 0 0-.233.609c0 .236.09.473.27.648l4.857 4.75a.83.83 0 0 0 1.173.001z"/>
</svg>
